svg/fluentui-system-icons/ic_fluent_lightbulb_circle_20_regular.svg

<svg width="20" height="20" viewBox="0 0 20 20" fill="none" xmlns="http://www.w3.org/2000/svg">
<path d="M10 3C6.13401 3 3 6.13401 3 10C3 13.866 6.13401 17 10 17C13.866 17 17 13.866 17 10C17 6.13401 13.866 3 10 3ZM2 10C2 5.58172 5.58172 2 10 2C14.4183 2 18 5.58172 18 10C18 14.4183 14.4183 18 10 18C5.58172 18 2 14.4183 2 10ZM10 6C8.48122 6 7.25 7.23122 7.25 8.75C7.25 9.63337 7.66596 10.4193 8.31474 10.9233C8.50279 11.0694 8.65608 11.286 8.70614 11.5529L8.78996 12H11.21L11.2939 11.5529C11.3439 11.286 11.4972 11.0694 11.6853 10.9233C12.334 10.4193 12.75 9.63337 12.75 8.75C12.75 7.23122 11.5188 6 10 6ZM11.0225 13H8.97746L9.08849 13.5921C9.13283 13.8286 9.33932 14 9.57993 14H10.4201C10.6607 14 10.8672 13.8286 10.9115 13.5921L11.0225 13ZM6.25 8.75C6.25 6.67893 7.92893 5 10 5C12.0711 5 13.75 6.67893 13.75 8.75C13.75 9.95525 13.1809 11.0278 12.2987 11.713C12.2883 11.7211 12.2821 11.7287 12.279 11.7336L12.2774 11.7362V11.7362L12.2766 11.7379L11.8944 13.7764C11.7614 14.4859 11.1419 15 10.4201 15H9.57993C8.8581 15 8.23864 14.4859 8.10562 13.7764L7.72339 11.7379C7.72339 11.7379 7.72249 11.7358 7.72102 11.7336C7.71789 11.7287 7.7117 11.7211 7.70129 11.713C6.81914 11.0278 6.25 9.95525 6.25 8.75Z" fill="#212121"/>
</svg>

<svg xmlns="http://www.w3.org/2000/svg" width="20" height="20"><path d="M10 3a7 7 0 1 0 0 14 7 7 0 0 0 0-14Zm-8 7a8 8 0 1 1 16 0 8 8 0 0 1-16 0Zm8-4a2.75 2.75 0 0 0-1.685 4.923c.188.146.341.363.391.63L8.79 12h2.42l.084-.447c.05-.267.203-.484.391-.63A2.75 2.75 0 0 0 10 6Zm1.023 7H8.977l.111.592A.5.5 0 0 0 9.58 14h.84a.5.5 0 0 0 .492-.408l.11-.592ZM6.25 8.75a3.75 3.75 0 1 1 6.049 2.963.086.086 0 0 0-.02.02l-.002.003v.002l-.383 2.038A1.5 1.5 0 0 1 10.42 15h-.84a1.5 1.5 0 0 1-1.474-1.224l-.383-2.038-.002-.004a.086.086 0 0 0-.02-.021A3.744 3.744 0 0 1 6.25 8.75Z"/></svg>
